packages/foundations/assets/icons/functional/images/arrows/arrow_up_right_20.svg

<svg width="20" height="20" viewBox="0 0 20 20" fill="none" xmlns="http://www.w3.org/2000/svg">
<g clip-path="url(#clip0_77_523)">
<path fill-rule="evenodd" clip-rule="evenodd" d="M6.75749 5.25H13.7545C14.2685 5.25 14.7495 5.635 14.7495 6.149V13.242C14.7495 13.755 14.2995 14.236 13.7545 14.236C13.6233 14.238 13.4931 14.2137 13.3716 14.1645C13.25 14.1152 13.1396 14.0421 13.0468 13.9494C12.954 13.8567 12.8807 13.7464 12.8314 13.6248C12.7821 13.5033 12.7576 13.3731 12.7595 13.242V8.652L6.91949 14.493C6.75949 14.686 6.53449 14.75 6.30949 14.75C6.02918 14.7476 5.76103 14.6352 5.56291 14.4369C5.36479 14.2386 5.25258 13.9703 5.25049 13.69C5.25049 13.498 5.31449 13.274 5.44349 13.145L11.3485 7.24H6.75849C6.62979 7.24278 6.50182 7.22001 6.382 7.17298C6.26217 7.12596 6.15286 7.05562 6.06041 6.96605C5.96795 6.87648 5.89419 6.76946 5.8434 6.65118C5.7926 6.5329 5.76578 6.40572 5.76449 6.277C5.76449 5.731 6.18049 5.25 6.75749 5.25Z" fill="#1A1C1F"/>
</g>
<defs>
<clipPath id="clip0_77_523">
<rect width="20" height="20" fill="white"/>
</clipPath>
</defs>
</svg>

<svg xmlns="http://www.w3.org/2000/svg" width="20" height="20" fill="none"><g clip-path="url(#a)"><path fill="#1A1C1F" fill-rule="evenodd" d="M6.757 5.25h6.998c.513 0 .994.385.994.899v7.093c0 .513-.45.994-.995.994a.98.98 0 0 1-.995-.994v-4.59l-5.84 5.841c-.16.193-.385.257-.61.257a1.07 1.07 0 0 1-1.059-1.06c0-.192.064-.416.193-.545L11.35 7.24h-4.59a.973.973 0 0 1-.995-.963c0-.546.416-1.027.993-1.027" clip-rule="evenodd"/></g><defs><clipPath id="a"><path fill="#fff" d="M0 0h20v20H0z"/></clipPath></defs></svg>
